public/sheesh/icons1.svg

<svg width="42" height="42" viewBox="0 0 42 42" fill="none" xmlns="http://www.w3.org/2000/svg">
<rect width="42" height="42" rx="8" fill="#1D202F"/>
<path fill-rule="evenodd" clip-rule="evenodd" d="M20.9701 10.9004C15.4501 10.9204 10.9801 15.4104 11.0001 20.9304C11.0201 26.4504 15.5101 30.9204 21.0301 30.9004C26.5501 30.8804 31.0201 26.3904 31.0001 20.8704C30.9801 15.3504 26.4901 10.8904 20.9701 10.9004ZM23.2601 21.0004C24.0401 21.2704 25.0901 21.8504 25.0901 23.6404C25.0901 25.1804 23.8801 26.4204 22.4001 26.4204H21.7501V27.0004C21.7501 27.4104 21.4101 27.7504 21.0001 27.7504C20.5901 27.7504 20.2501 27.4104 20.2501 27.0004V26.4204H19.8901C18.2501 26.4204 16.9201 25.0404 16.9201 23.3404C16.9201 22.9304 17.2601 22.5904 17.6701 22.5904C18.0801 22.5904 18.4201 22.9304 18.4201 23.3404C18.4201 24.2104 19.0801 24.9204 19.8901 24.9204H20.2501V21.5404L18.7401 21.0004C17.9601 20.7304 16.9101 20.1504 16.9101 18.3604C16.9101 16.8204 18.1201 15.5804 19.6001 15.5804H20.2501V15.0004C20.2501 14.5904 20.5901 14.2504 21.0001 14.2504C21.4101 14.2504 21.7501 14.5904 21.7501 15.0004V15.5804H22.1101C23.7501 15.5804 25.0801 16.9604 25.0801 18.6604C25.0801 19.0704 24.7401 19.4104 24.3301 19.4104C23.9201 19.4104 23.5801 19.0704 23.5801 18.6604C23.5801 17.7904 22.9201 17.0804 22.1101 17.0804H21.7501V20.4604L23.2601 21.0004ZM21.7598 24.9198H22.3998C23.0498 24.9198 23.5898 24.3398 23.5898 23.6398C23.5898 22.7698 23.2798 22.5998 22.7698 22.4198L21.7598 22.0698V24.9198ZM19.2394 19.5906C18.7294 19.4106 18.4194 19.2406 18.4194 18.3706C18.4194 17.6606 18.9494 17.0806 19.5994 17.0806H20.2494V19.9406L19.2394 19.5906Z" fill="#434665"/>
</svg>

<svg fill="none" height="42" viewBox="0 0 42 42" width="42" xmlns="http://www.w3.org/2000/svg"><rect fill="#1d202f" height="42" rx="8" width="42"/><path clip-rule="evenodd" d="m20.9701 10.9004c-5.52.02-9.99 4.51-9.97 10.03s4.51 9.99 10.03 9.97 9.99-4.51 9.97-10.03-4.51-9.98-10.03-9.97zm2.29 10.1c.78.27 1.83.85 1.83 2.64 0 1.54-1.21 2.78-2.69 2.78h-.65v.58c0 .41-.34.75-.75.75s-.75-.34-.75-.75v-.58h-.36c-1.64 0-2.97-1.38-2.97-3.08 0-.41.34-.75.75-.75s.75.34.75.75c0 .87.66 1.58 1.47 1.58h.36v-3.38l-1.51-.54c-.78-.27-1.83-.85-1.83-2.64 0-1.54 1.21-2.78 2.69-2.78h.65v-.58c0-.41.34-.75.75-.75s.75.34.75.75v.58h.36c1.64 0 2.97 1.38 2.97 3.08 0 .41-.34.75-.75.75s-.75-.34-.75-.75c0-.87-.66-1.58-1.47-1.58h-.36v3.38zm-1.5003 3.9194h.64c.65 0 1.19-.58 1.19-1.28 0-.87-.31-1.04-.82-1.22l-1.01-.35zm-2.5204-5.3292c-.51-.18-.82-.35-.82-1.22 0-.71.53-1.29 1.18-1.29h.65v2.86z" fill="#434665" fill-rule="evenodd"/></svg>
